X:6
T:Columbia, the Gem of the Ocean
% Four-part piano arrangement for standard notation.
%%titlespace 30pt
%%LineSep 20pt
C:David T. Shaw/David T. Shaw
S:Source "The One Hundred and One Best Songs" - The Cable Company - 1919 - Chicago, Illinois
M:4/4
L:1/8
Q:1/4=120
%%staves [(1 2) (3 4)]
%%vocalfont Times-Roman 12.0
K:G
V:1 clef=treble
"^Spirited"D3/2- D/2 | G2 G > G A2 d > c | B G2 z z2 D- D | E2 e d cB A G | (G4 F2) z
w:1.~O Co-lum-bia, the gem of the o-cean, The* home of the brave* and the free,*
w:2.~When* war winged its wide des-o-la-tion, And* threat-ened the land* to de-form,*
w:3.~The* star-span-gled ban-ner bring hith-er, O'er Co-lum-bia's true sons* let it wave;*
V:2 clef=treble
D3/2- D/2 | D2 D > D F2 F > F | G D2 z z2 B,- B, | C2 E E E2 E E | E6 z
V:3 clef=bass
%%MIDI transpose -24
%%jsastem=dn
d3/2- d/2 | b2 b > b d'2 a > d' | d' b2 z z2 g- g | g2 c' c' g2 a a | (b4 a2) z
V:4 clef=bass
%%MIDI transpose -24
%%jsastem=dn
d3/2- d/2 | G2 G > G d2 d > d | g g2 z z2 G- G | c2 c c c2 ^c ^c | d6 z
V:1
A/- A/ | A2 A > A A2 B ^c | d A z2 z2 d- d | ^cB A G FE A ^C | D2 z2 z2
w:The* shrine of each pa-triot's de-vo-tion, A* world* of-fers hom\-* age to thee.
w:The* ark then of free-dom's foun-da-tion, Co\-* lum\-* bia, rode safe* thro' the storm:
w:May the wreaths they have won nev-er with-er, Nor its stars* cease to shine* on the brave:
V:2
F/- F/ | F2 F > F E2 G G | F F z2 z2 F- F | AG F E D^C ^C A, | A,2 z2 z2
V:3
d'/- d'/ | d'2 d' > d' ^c'2 d' e' | d' d' z2 z2 d'- d' | d'2 b b a2 g g | f2 z2 z2
V:4
d/- d/ | d2 d > d a2 a a | d d z2 z2 d- d | g2 G G A2 A A | d2 z2 z2
V:1
(D F) | A2 A A GF E D | D G z2 z2 (G A) | B2 B B cB A G | A2 z2 z2
w:Thy* man-dates make he\-* roes as-sem-ble, When* Lib-er-ty's form* stands in view;
w:With the gar-lands of vic\-* t'ry a-round her, When so proud-ly she bore* her brave crew,
w:May the serv-ice, u-nit\-* ed, ne'er sev-er, But* hold to their col\-* ors so true;
V:2
D- D | F2 F F D2 C C | B, B, z2 z2 G- G | G2 G D ED E E | F2 z2 z2
V:3
d'- d' | d'2 d' d' c'2 f f | g g z2 z2 (b c') | d'2 d' g g2 g e' | d'2 z2 z2
V:4
d- d | d2 d d d2 d d | g g z2 z2 g- g | g2 g g g2 c ^c | d2 z2 z2
V:1
(G B) | Sd2 d d cB A G | F E z2 z2 ed | cB A G F2 E F | ZG6 ||
w:Thy* ban-ners make tyr\-* an-ny trem-ble When* borne* by the red, white and blue;
w:With her flag proud-ly float\-* ing be-fore her, The* boast* of the red, white and blue;
w:The* ar-my and na\-* vy for-ev-er, Three* cheers* for the red, white and blue;
V:2
(D G) | SG2 G G ED D D | D C z2 z2 E2 | E2 E E D2 D D | ZD6 ||
V:3
(b d') | S[b2g] [bg] [bg] g2 f g | a g z2 z2 g ^g | a2 a a a2 c' c' | Zb6 ||
V:4
g- g | SG2 G G G2 A B | c c z2 z2 cB | A2 c c d2 d d | Zg6 ||
V:1
"^CHORUS."FG | A2 A > A A2 d c | B2 z2 z2 FG | A2 A A A2 d c | B2 z2 z2 (sG B) |]
w:When* borne by the red, white and blue, When* borne by the red, white and blue; Thy*
w:The* boast of the red, white and blue, The* boast of the red, white and blue; With her
w:Three* cheers for the red, white and blue, Three* cheers for the red, white and blue; The*
V:2
DE | F2 F > F F2 F A | G2 z2 z2 DE | F2 F F F2 F A | G2 z2 z2 (sD G) |]
V:3
d'2 | d'2 d' > d' d'2 a d' | d'2 z2 z2 d'2 | d'2 d' d' d'2 a d' | d'2 z2 z2 (sb d') |]
V:4
d2 | d2 d > d d2 d f | g2 z2 z2 d2 | d2 d d d2 d f | g2 z2 z2 sg- g |]

%%newpage

